static/img/icon/share-icon.svg

<svg width="20" height="18" viewBox="0 0 20 18" fill="none" xmlns="http://www.w3.org/2000/svg">
<g clip-path="url(#clip0)">
<path d="M19.739 6.1614L14.7389 10.8831C14.2118 11.3808 13.3333 11.0118 13.3333 10.2773V7.77855C8.31337 7.81223 6.19563 8.99775 7.61198 13.7283C7.76764 14.2482 7.16594 14.6508 6.74372 14.33C5.39069 13.3023 4.16667 11.3364 4.16667 9.35206C4.16667 4.35424 8.24997 3.36247 13.3333 3.33428V0.833758C13.3333 0.0985495 14.2124 -0.269298 14.7389 0.227925L19.739 4.94973C20.0869 5.27831 20.0872 5.83254 19.739 6.1614ZM13.3333 13.1642V15.5556H2.22222V4.44445H3.99014C4.04625 4.44442 4.10177 4.43304 4.15337 4.411C4.20497 4.38897 4.25159 4.35673 4.29042 4.31622C4.80962 3.77567 5.40976 3.34782 6.06174 3.00803C6.44819 2.80661 6.305 2.22223 5.8692 2.22223H1.66667C0.746181 2.22223 0 2.96841 0 3.8889V16.1111C0 17.0316 0.746181 17.7778 1.66667 17.7778H13.8889C14.8094 17.7778 15.5556 17.0316 15.5556 16.1111V13.0276C15.5556 12.7398 15.2709 12.5392 14.9996 12.6351C14.6192 12.7697 14.2119 12.8099 13.8125 12.7524C13.5601 12.7161 13.3333 12.9091 13.3333 13.1642Z" fill="#569CD6"/>
</g>
<defs>
<clipPath id="clip0">
<rect width="20" height="18" fill="white"/>
</clipPath>
</defs>
</svg>

<svg xmlns="http://www.w3.org/2000/svg" width="20" height="18" fill="none" viewBox="0 0 20 18"><g clip-path="url(#a)"><path fill="#569cd6" d="m19.739 6.161-5 4.722c-.527.498-1.406.129-1.406-.606V7.78c-5.02.033-7.137 1.219-5.721 5.95.156.52-.446.922-.868.601-1.353-1.028-2.577-2.994-2.577-4.978 0-4.998 4.083-5.99 9.166-6.018v-2.5c0-.735.88-1.103 1.406-.606l5 4.722a.834.834 0 0 1 0 1.211m-6.406 7.003v2.392H2.223V4.444H3.99a.42.42 0 0 0 .3-.128 6.8 6.8 0 0 1 1.772-1.308c.386-.201.243-.786-.193-.786H1.667C.747 2.222 0 2.968 0 3.89V16.11c0 .92.746 1.667 1.667 1.667h12.222c.92 0 1.667-.746 1.667-1.667v-3.083a.417.417 0 0 0-.556-.393c-.38.135-.788.175-1.187.117a.417.417 0 0 0-.48.412"/></g><defs><clipPath id="a"><path fill="#fff" d="M0 0h20v18H0z"/></clipPath></defs></svg>
